extensions/images/svgs/u_globe.svg

<svg fill="none" height="14" viewBox="0 0 14 14" width="14" xmlns="http://www.w3.org/2000/svg"><path d="m13.5861 4.64112s0 0 0-.0351c-.4942-1.35059-1.391-2.51665-2.5689-3.34044-1.17792-.823801-2.58022-1.26558-4.0172-1.26558s-2.83928.441779-4.01721 1.26558c-1.17794.82379-2.074658 1.98985-2.568859 3.34044v.0351c-.551908 1.52407-.551908 3.19369 0 4.71776v.0351c.494201 1.35062 1.390919 2.51662 2.568859 3.34042 1.17793.8238 2.58023 1.2656 4.01721 1.2656s2.83928-.4418 4.0172-1.2656c1.1779-.8238 2.0747-1.9898 2.5689-3.34042 0 0 0 0 0-.0351.5519-1.52407.5519-3.19369 0-4.71776zm-12.0289 3.76298c-.24322-.92024-.24322-1.88796 0-2.8082h1.30459c-.1122.9327-.1122 1.8755 0 2.8082zm.57514 1.40409h.98195c.16463.62611.39994 1.23141.70139 1.80431-.68786-.4691-1.26286-1.0854-1.68334-1.80431zm.98195-5.61638h-.98195c.41443-.71673.98208-1.33286 1.6623-1.80427-.2942.57375-.52244 1.17904-.68035 1.80427zm3.17029 8.21399c-.86147-.6328-1.46651-1.5549-1.70438-2.59761h1.70438zm0-4.0017h-2.00598c-.13089-.93148-.13089-1.87672 0-2.8082h2.00598zm0-4.21229h-1.70438c.23787-1.04271.84291-1.96481 1.70438-2.59758zm5.55502 0h-.9819c-.1647-.62612-.4-1.23144-.7014-1.80427.6878.46902 1.2628 1.08533 1.6833 1.80427zm-4.15224-2.59758c.86148.63277 1.46651 1.55487 1.70439 2.59758h-1.70439zm0 10.81157v-2.59761h1.70439c-.23788 1.04271-.84291 1.96481-1.70439 2.59761zm2.00598-4.0017h-2.00598v-2.8082h2.00598c.13089.93148.13089 1.87672 0 2.8082zm.48396 3.2084c.3015-.5729.5368-1.1782.7014-1.80431h.9819c-.4204.71891-.9954 1.33521-1.6833 1.80431zm2.2374-3.2084h-1.3045c.057-.46584.0851-.93478.0841-1.4041.0008-.46932-.0273-.93824-.0841-1.4041h1.3045c.2433.92024.2433 1.88796 0 2.8082z" fill="#000"/></svg>

<svg width="14" height="14" viewBox="0 0 14 14" fill="none" xmlns="http://www.w3.org/2000/svg">
<path d="M13.5861 4.64112C13.5861 4.64112 13.5861 4.64112 13.5861 4.60602C13.0919 3.25543 12.1951 2.08937 11.0172 1.26558C9.83928 0.441779 8.43698 0 7 0C5.56302 0 4.16072 0.441779 2.98279 1.26558C1.80485 2.08937 0.908132 3.25543 0.413931 4.60602C0.413931 4.60602 0.413931 4.60602 0.413931 4.64112C-0.137977 6.16519 -0.137977 7.83481 0.413931 9.35888C0.413931 9.35888 0.413931 9.35888 0.413931 9.39398C0.908132 10.7446 1.80485 11.9106 2.98279 12.7344C4.16072 13.5582 5.56302 14 7 14C8.43698 14 9.83928 13.5582 11.0172 12.7344C12.1951 11.9106 13.0919 10.7446 13.5861 9.39398C13.5861 9.39398 13.5861 9.39398 13.5861 9.35888C14.138 7.83481 14.138 6.16519 13.5861 4.64112ZM1.5572 8.4041C1.31398 7.48386 1.31398 6.51614 1.5572 5.5959H2.86179C2.74959 6.5286 2.74959 7.4714 2.86179 8.4041H1.5572ZM2.13234 9.80819H3.11429C3.27892 10.4343 3.51423 11.0396 3.81568 11.6125C3.12782 11.1434 2.55282 10.5271 2.13234 9.80819ZM3.11429 4.19181H2.13234C2.54677 3.47508 3.11442 2.85895 3.79464 2.38754C3.50044 2.96129 3.2722 3.56658 3.11429 4.19181ZM6.28458 12.4058C5.42311 11.773 4.81807 10.8509 4.5802 9.80819H6.28458V12.4058ZM6.28458 8.4041H4.2786C4.14771 7.47262 4.14771 6.52738 4.2786 5.5959H6.28458V8.4041ZM6.28458 4.19181H4.5802C4.81807 3.1491 5.42311 2.227 6.28458 1.59423V4.19181ZM11.8396 4.19181H10.8577C10.693 3.56569 10.4577 2.96037 10.1563 2.38754C10.8441 2.85656 11.4191 3.47287 11.8396 4.19181ZM7.68736 1.59423C8.54884 2.227 9.15387 3.1491 9.39175 4.19181H7.68736V1.59423ZM7.68736 12.4058V9.80819H9.39175C9.15387 10.8509 8.54884 11.773 7.68736 12.4058ZM9.69334 8.4041H7.68736V5.5959H9.69334C9.82423 6.52738 9.82423 7.47262 9.69334 8.4041ZM10.1773 11.6125C10.4788 11.0396 10.7141 10.4343 10.8787 9.80819H11.8606C11.4402 10.5271 10.8652 11.1434 10.1773 11.6125ZM12.4147 8.4041H11.1102C11.1672 7.93826 11.1953 7.46932 11.1943 7C11.1951 6.53068 11.167 6.06176 11.1102 5.5959H12.4147C12.658 6.51614 12.658 7.48386 12.4147 8.4041Z" fill="black"/>
</svg>
